src/images/wa_share_icon.svg

<?xml version="1.0" encoding="UTF-8"?>
<svg width="50px" height="36px" viewBox="0 0 50 36" version="1.1" xmlns="http://www.w3.org/2000/svg" xmlns:xlink="http://www.w3.org/1999/xlink">
    <!-- Generator: Sketch 42 (36781) - http://www.bohemiancoding.com/sketch -->
    <title>Group 7 Copy</title>
    <desc>Created with Sketch.</desc>
    <defs>
        <polygon id="path-1" points="9.71256668e-06 0 20.3411244 0 20.3411244 20.3417701 9.71256668e-06 20.3417701 9.71256668e-06 2.74736342e-15"></polygon>
    </defs>
    <g id="Page-1" stroke="none" stroke-width="1" fill="none" fill-rule="evenodd">
        <g id="Social-Share-Header-Copy" transform="translate(-115.000000, -5.000000)">
            <g id="Group-7-Copy" transform="translate(115.000000, 5.000000)">
                <rect id="Rectangle-15" fill="#25D366" x="0" y="0" width="50" height="36" rx="4"></rect>
                <g id="Page-1" transform="translate(15.000000, 8.000000)">
                    <mask id="mask-2" fill="white">
                        <use xlink:href="#path-1"></use>
                    </mask>
                    <g id="Clip-2"></g>
                    <path d="M14.830564,12.1899283 C14.5775031,12.0638781 13.3333234,11.4546516 13.1013388,11.3705054 C12.8694027,11.2864558 12.7006954,11.2445035 12.5319881,11.4965556 C12.3632809,11.748656 11.8782839,12.3160268 11.7306529,12.484126 C11.5830704,12.6521768 11.4354394,12.6732979 11.1823785,12.547151 C10.9293176,12.4211009 10.1138991,12.1551775 9.14730451,11.2970405 C8.3950177,10.6291872 7.88709906,9.80444775 7.73951661,9.55229904 C7.59188561,9.30015033 7.72373369,9.16385372 7.85043412,9.03828685 C7.96431396,8.925383 8.10354359,8.74408919 8.23004977,8.59701452 C8.3566045,8.44998819 8.39875704,8.34486581 8.48311068,8.17686333 C8.56746431,8.00871585 8.52531178,7.86168952 8.46198585,7.73563933 C8.39875704,7.60958914 7.89263522,6.36982171 7.68177541,5.86547595 C7.47635463,5.37442152 7.26772871,5.44092653 7.11237622,5.43314506 C6.96493946,5.42584691 6.79603794,5.42430028 6.62737923,5.42430028 C6.45867195,5.42430028 6.18448621,5.48732537 5.95250157,5.73942576 C5.72056549,5.99157447 5.06681266,6.60094595 5.06681266,7.84056838 C5.06681266,9.08033581 5.97357784,10.2779093 6.10013257,10.4460084 C6.22668731,10.6141559 7.88457379,13.1580692 10.4232443,14.249022 C11.0269774,14.5085655 11.4983768,14.6635183 11.8659003,14.7795637 C12.4721102,14.9712973 13.0237839,14.9442313 13.4598296,14.8793696 C13.9460406,14.807113 14.9570702,14.2701431 15.1679786,13.6818444 C15.3788384,13.0934008 15.3788384,12.5891517 15.315561,12.484126 C15.2523322,12.3790519 15.0836249,12.3160268 14.830564,12.1899283 M10.213113,18.4646469 L10.2097136,18.4646469 C8.69916671,18.4640669 7.21761187,18.0601553 5.92516069,17.296846 L5.61775797,17.1152622 L2.4317449,17.9470581 L3.28212863,14.8554452 L3.0820012,14.5384347 C2.23933896,13.2045647 1.79426062,11.6628664 1.7949405,10.0797959 C1.79678589,5.46054938 5.57312873,1.70243639 10.2164638,1.70243639 C12.4649229,1.70320971 14.5784744,2.57579796 16.1678873,4.15944848 C17.757203,5.74300233 18.6319653,7.84796319 18.6310912,10.0865624 C18.6291972,14.7061956 14.8529029,18.4646469 10.213113,18.4646469 M17.3774903,2.95612347 C15.4653288,1.05082264 12.9223847,0.00109713932 10.2130158,-1.44996388e-05 C4.63057275,-1.44996388e-05 0.0871314309,4.52155278 0.0848975407,10.0791676 C0.0841690983,11.85576 0.550517962,13.5897717 1.43683819,15.1184686 L9.71256668e-06,20.3417701 L5.36901916,18.94009 C6.84834011,19.7431283 8.51389951,20.1664211 10.2089851,20.1669528 L10.213113,20.1669528 L10.2131615,20.1669528 C15.7950219,20.1669528 20.3388517,15.6449505 20.3411341,10.087239 C20.3421539,7.39388285 19.2896517,4.86137598 17.3774903,2.95612347" id="Fill-1" fill="#FFFFFF" mask="url(#mask-2)"></path>
                </g>
            </g>
        </g>
    </g>
</svg>

<svg viewBox="0 0 50 36" xmlns="http://www.w3.org/2000/svg" xmlns:xlink="http://www.w3.org/1999/xlink"><defs><path id="a" d="M0 0h20.341v20.342H0V0z"/></defs><g fill="none" fill-rule="evenodd"><rect fill="#25D366" width="50" height="36" rx="4"/><g transform="translate(15 8)"><mask id="b" fill="#fff"><use xlink:href="#a"/></mask><path d="M14.83 12.19c-.252-.126-1.497-.735-1.729-.82-.232-.084-.4-.125-.569.127-.169.252-.654.819-.801.987-.148.168-.296.19-.549.063-.253-.126-1.068-.392-2.035-1.25-.752-.668-1.26-1.493-1.407-1.745-.148-.252-.016-.388.11-.514.114-.113.254-.294.38-.441.127-.147.169-.252.253-.42.084-.168.042-.315-.021-.441s-.57-1.366-.78-1.87c-.206-.492-.414-.425-.57-.433a10.198 10.198 0 0 0-.485-.009.932.932 0 0 0-.674.315c-.232.253-.886.862-.886 2.102 0 1.24.907 2.437 1.033 2.605.127.168 1.785 2.712 4.323 3.803.604.26 1.075.415 1.443.53.606.192 1.158.165 1.594.1.486-.072 1.497-.609 1.708-1.197.21-.589.21-1.093.148-1.198-.064-.105-.232-.168-.485-.294m-4.618 6.275h-.003a8.436 8.436 0 0 1-4.285-1.168l-.307-.182-3.186.832.85-3.092-.2-.317a8.328 8.328 0 0 1-1.287-4.458c.002-4.62 3.778-8.378 8.421-8.378a8.386 8.386 0 0 1 5.952 2.457 8.307 8.307 0 0 1 2.463 5.928c-.002 4.62-3.778 8.378-8.418 8.378m7.164-15.509A10.087 10.087 0 0 0 10.213 0C4.631 0 .087 4.522.085 10.08c0 1.776.466 3.51 1.352 5.038L0 20.342l5.369-1.402a10.157 10.157 0 0 0 4.84 1.227h.004c5.582 0 10.126-4.522 10.128-10.08a9.995 9.995 0 0 0-2.964-7.13" fill="#FFF" mask="url(#b)"/></g></g></svg>
